build/img/sprites/GlobeHemisphereEast.svg

<svg width="54" height="54" viewBox="0 0 54 54" fill="none" xmlns="http://www.w3.org/2000/svg">
<path d="M27 5.0625C22.6612 5.0625 18.4198 6.34911 14.8122 8.75964C11.2046 11.1702 8.3928 14.5963 6.7324 18.6049C5.07201 22.6134 4.63757 27.0243 5.48403 31.2798C6.3305 35.5353 8.41984 39.4441 11.4879 42.5122C14.5559 45.5802 18.4648 47.6695 22.7202 48.516C26.9757 49.3624 31.3866 48.928 35.3951 47.2676C39.4037 45.6072 42.8299 42.7954 45.2404 39.1878C47.6509 35.5802 48.9375 31.3388 48.9375 27C48.9314 21.1837 46.6181 15.6074 42.5054 11.4946C38.3926 7.38188 32.8163 5.06864 27 5.0625ZM27 8.4375C30.5964 8.43368 34.1156 9.48063 37.125 11.4497V15.6094L32.4485 21.0389L25.8103 21.9375L25.7449 21.8911L21.5958 19.1784C21.2279 18.9193 20.812 18.7364 20.3724 18.6403C19.9328 18.5443 19.4784 18.5372 19.036 18.6193C18.5936 18.7015 18.1721 18.8713 17.7963 19.1187C17.4204 19.3662 17.0979 19.6862 16.8476 20.0602L12.4306 26.6625C12.0626 27.2127 11.8645 27.859 11.861 28.5209L11.8125 36.1631L11.1227 36.6166C9.41755 33.8013 8.4916 30.5833 8.43978 27.2922C8.38796 24.0012 9.21215 20.7556 10.8279 17.888C12.4436 15.0204 14.7927 12.634 17.6345 10.9733C20.4763 9.31267 23.7086 8.43749 27 8.4375ZM13.1393 39.3335L13.6709 38.9855C14.135 38.6793 14.5164 38.2632 14.781 37.7741C15.0456 37.285 15.1852 36.7382 15.1875 36.1821L15.2318 28.5398L19.6531 21.9375C19.6747 21.9542 19.6972 21.9697 19.7206 21.9839L23.8697 24.6987C24.565 25.1894 25.4206 25.3982 26.2638 25.283L32.9063 24.3823C33.7254 24.2729 34.4759 23.8669 35.0156 23.2411L39.6921 17.8073C40.2151 17.1946 40.5017 16.415 40.5 15.6094V14.2741C42.7825 16.6889 44.3738 19.6729 45.1075 22.9137C45.8412 26.1545 45.6901 29.5329 44.6702 32.6953L41.2657 29.5819C40.7924 29.1474 40.205 28.8571 39.5724 28.745C38.9398 28.6329 38.2883 28.7037 37.6945 28.9491L31.2694 31.6174C30.7321 31.8429 30.262 32.203 29.9044 32.663C29.5468 33.123 29.3136 33.6673 29.2275 34.2436L28.7234 37.6587C28.6022 38.4807 28.7885 39.3185 29.2466 40.0117C29.7047 40.7048 30.4024 41.2047 31.2061 41.4155L35.7328 42.6094L36.2306 43.1093C32.5342 45.2302 28.2198 46.0126 24.014 45.3249C19.8082 44.6372 15.9677 42.5213 13.1393 39.3335ZM39.0234 41.1328L38.1164 40.2237C37.6933 39.799 37.1647 39.4946 36.585 39.342L32.0625 38.1481L32.5667 34.733L38.9897 32.0625L43.2422 35.9606C42.1583 37.9243 40.7292 39.6764 39.0234 41.1328Z" fill="#78213A"/>
</svg>

<svg width="54" height="54" viewBox="0 0 54 54" fill="none" xmlns="http://www.w3.org/2000/svg"><path d="M27 5.063A21.937 21.937 0 1048.938 27 21.96 21.96 0 0027 5.062zm0 3.375a18.457 18.457 0 0110.125 3.012v4.16l-4.676 5.429-6.639.898-.065-.046-4.15-2.713a3.377 3.377 0 00-4.747.882l-4.417 6.603a3.375 3.375 0 00-.57 1.858l-.049 7.642-.69.454A18.563 18.563 0 0127 8.437zM13.14 39.332l.53-.347a3.376 3.376 0 001.518-2.804l.044-7.642 4.421-6.602a.727.727 0 00.068.046l4.149 2.715c.695.49 1.55.7 2.394.584l6.642-.9c.82-.11 1.57-.516 2.11-1.142l4.676-5.434c.523-.612.81-1.392.808-2.198v-1.335a18.535 18.535 0 014.17 18.421l-3.404-3.113a3.374 3.374 0 00-3.572-.633l-6.425 2.668a3.391 3.391 0 00-2.041 2.627l-.505 3.415a3.375 3.375 0 002.483 3.757l4.527 1.193.498.5a18.537 18.537 0 01-23.092-3.776zm25.883 1.8l-.907-.91a3.374 3.374 0 00-1.531-.881l-4.523-1.194.505-3.415 6.423-2.67 4.252 3.898a18.654 18.654 0 01-4.219 5.172z" fill="#78213A"/></svg>
